X:1
T:Prince Charles' Jig
R:jig
B:Ryan's Mammoth Collection
N: 90 472
Z: Contributed by Ray Davies,  ray:davies99.freeserve.co.uk
M:6/8
L:1/8
K:Amix
ud|\
cee A2e | faf ecA | def ecA | ^GBB B2d |
cee A2e | faf ecA | def ecA | BAA A2:|
|:ud|\
cAA eAA | fAA eAA | cAA eAA | ^GBB B2d |
cAA eAA | fef ef^g | a^gf eac | BAA A2:|
